icons/outline/circle-dashed-percentage.svg

<!--
tags: [percent, ratio, portion, fraction, rate, 100, per, decimal, markup, discount]
version: "2.45"
unicode: "fd7a"
-->
<svg
  xmlns="http://www.w3.org/2000/svg"
  width="24"
  height="24"
  viewBox="0 0 24 24"
  fill="none"
  stroke="currentColor"
  stroke-width="2"
  stroke-linecap="round"
  stroke-linejoin="round"
>
  <path d="M9 15l6 -6m-6.44 -5.31a9 9 0 0 0 -2.92 1.95m-1.95 2.92a9 9 0 0 0 -.69 3.44m.69 3.44a9 9 0 0 0 1.95 2.92m2.92 1.95a9 9 0 0 0 3.44 .69m3.44 -.69a9 9 0 0 0 2.92 -1.95m1.95 -2.92a9 9 0 0 0 .69 -3.44m-.69 -3.44a9 9 0 0 0 -1.95 -2.92m-2.92 -1.95a9 9 0 0 0 -3.44 -.69m-3 6.03v.015m6 6v.015" />
</svg>

<!--
tags: [percent, ratio, portion, fraction, rate, 100, per, decimal, markup, discount]
version: "2.45"
unicode: "fd7a"
-->
<svg
  xmlns="http://www.w3.org/2000/svg"
  width="24"
  height="24"
  viewBox="0 0 24 24"
  fill="none"
  stroke="currentColor"
  stroke-width="2"
  stroke-linecap="round"
  stroke-linejoin="round"
>
    <path d="M9 15l6 -6M8.56 3.69a9 9 0 0 0 -2.92 1.95M3.69 8.56a9 9 0 0 0 -.69 3.44M3.69 15.44a9 9 0 0 0 1.95 2.92M8.56 20.31a9 9 0 0 0 3.44 .69M15.44 20.31a9 9 0 0 0 2.92 -1.95M20.31 15.44a9 9 0 0 0 .69 -3.44M20.31 8.56a9 9 0 0 0 -1.95 -2.92M15.44 3.69a9 9 0 0 0 -3.44 -.69M9 9.03v.015M15 15.045v.015" />
</svg>
